X:1
T: Da Rain Dancin'
T: 8 x 32R 3C (Ron Wallace/Whiteadder)
P: Da Rain Dancin'
C: By Muriel Johnstone
C: Arr. T. Traub 4-24-01
R: reel
M: 4/4
K: D
L: 1/8
"Em"g2|: "Bm"fedc dBfB|"Bm"dBfB "A"eAce|"Bm"fedc dB b2-|"G"bafa "A7"gfeg :|
"D"fAAA aAfA|"Bm"dBBB "A"bBag|"D"fAdc "Bm"dBfe|"G"fagf "A"edce|
"D"fAAA aAfA|"Bm"dBBB "A"bBag|"D"fagf edcB|"A"cAeA fAeA |]
